X:1
T:A minor Oliver Brownson, 1783
T:Isaac Watts, 1719 (Psalm 50, Part 6)        10 10. 10 10. 10 10. 
T:York
T:Transcribed from Brownson's Select Harmony, 1783.
%%score [ 1 2 3 4 ]
L:1/8
Q:1/4=120
M:4/4
K:C
V:1 treble nm="Tr." snm="Tr."
V:2 treble nm="C." snm="C."
V:3 treble-8 nm="T." snm="T."
V:4 bass nm="B." snm="B."
V:1
"^2. No more shall atheists mock his long delay;  His  vengeance  sleeps  no  more;  behold   the   day:   Behold, the Judge de–""^1. The God of glory sends his summons forth,  Calls the south nations and  _____  awakes   the north;  From east to west the" A4 A2 G2 | %1
 A4 B4 | c2 c2 A2 c2 | B8 | G4 B2 B2 | c4 e4 | (c2 A2 B2) B2 | A4 G4 | G8 | c4 c2 c2 | B4 c4 | %11
"^1. sovereign orders spread, Through distant worlds and regions of the dead:  The trumpet sounds; hell trem        –        bles;""^2.–scends; his guards are nigh;  Tempests and fire attend him down the sky.   WhenGodappears, all  na             –               ture" e2 e2 c2 A2 | %12
 ^G8 | A4 A2 A2 | B4 d4 | d2 d2 c2 B2 | B8 | G4 G2 G2 | G4 B4 | c6 c2 | %20
"^1. heaven _________  re –  joi  –   ces;      Lift         up   your  heads, __________  ye         saints,  with cheer      –       ful   voi   –    ces.""^2. shall ____________ a  –  dore    him;    While    sin–ners  trem           –             ble,       saints   re  – joice ________ be – fore      him." (e>fed c2) A2 | %21
 (B2 G2) E4 | B4 A2 AB | (c4 B2) Bc | d2 e2 (B3 A | c2) B2 (A2 G2) | A8 |] %27
V:2
"^3. \"Heav'n, earth, and hell, draw near; let all things come  To hear my justice, and the sinner's doom;    But  gather  first  my""^4. \"Silent  I  waited with long-suff'ring love;   But didst thou hope that I _____should ne'er reprove?    And cherish such an" E4 E2 E2 | %1
 E4 G4 | E2 E2 E2 E2 | E8 | E4 E2 E2 | E4 C4 | (E3 F G2) G2 | F4 D4 | E8 | G4 G2 G2 | G4 G4 | %11
"^3. saints,\" the Judge commands, \"Bring them, ye angels, from their distant lands.\"  When Christ returns, wake eve     –      ry""^4. impious  thought  within,  That   the   All-Holy   would   indulge  thy    sin?\"     See,  God  appears; all  na              –             ture" A2 A2 E2 D2 | %12
 E8 | F4 F2 F2 | G4 A4 | G2 GF EF G2 | G8 | E4 E2 E2 | E4 G4 | E6 E2 | %20
"^3. cheer           –           ful       pas – sion;   And  shout,  ye       saints; __________  he       comes  for    your _________  sal–va    –    tion.""^4. joins ___________  t'a   –   dore  him;    Judg–ment  pro – ceeds, ___________ and     sin  –  ners   fall __________  be – fore      him." (A2 G2 AG) F2 | %21
 E4 E4 | E4 E2 E2 | (E3 F G2) G2 | G2 G2 (G4 | F2) F2 E4 | E8 |] %27
V:3
"^5. \"Behold my terrors now; my thunders roll,   And thy own crimes affright _____ thy    guilty      soul;    Now like  a     li – on""^6. Sinners,  awake  betimes;  ye fools, be wise;    Awake before this dreadful morning rise; Change your vain thoughts, your" A4 c2 B2 | %1
 c4 d4 | e2 e2 c2 A2 | ^G8 | B4 G2 G2 | G4 A4 | (A2 c2 B2) d2 | c4 B4 | c8 | e4 e2 e2 | d4 e4 | %11
"^5. shall my vengeance tear  Thy bleeding heart, and no de – li – verer  near.\"    Judgment concludes; hell trem         –        bles;""^6. crooked works amend,     Fly  to  t he  Savior,  make  the  Judge  your friend:   Then join the saints, wake eve           –          ry" c2 A2 A2 A2 | %12
 B8 | d4 d2 d2 | d4 A4 | B2 B2 c2 d2 | e8 | B4 c2 c2 | c4 d4 | (e>fed e2) ed | %20
"^5. heav'n _________   re  – joi  –   ces;       Lift       up   your  heads, ___________ ye       saints,  with cheer       –        ful   voi    –    ces.""^6. cheer           –            ful    pas – sion;    When  Christ  re–turns, __________    he     comes    for    your ________   sal – va   –     tion." (c2 B2 A2) c2 | %21
 B4 B4 | G4 c2 cd | (e4 d2) d2 | d2 cd (e3 c | A2) d2 (c2 B2) | A8 |] %27
V:4
 A,4 A,2 E,2 | A,4 G,4 | C,2 A,,2 A,,2 A,,2 | E,8 | E,4 E,2 E,2 | C,4 A,,4 | (A,4 G,2) E,2 | %7
 F,4 G,4 | C,8 | C,4 C,2 C,2 | G,4 C4 | A,2 A,2 A,2 G,F, | E,8 | D,4 D,2 D,2 | G,4 F,2 D,2 | %15
 G,2 G,2 A,2 B,2 | E,8 | E,4 C,2 C,2 | C,4 G,4 | (C>DCB, A,2) A,2 | A,4 A,,4 | E,4 E,4 | %22
 G,2 E,2 A,2 A,2 | (A,>B,A,C B,2) G,2 | G,F, E,2 (E,4 | F,2) D,2 E,4 | A,,8 |] %27

